X: 35
T:Deil Among the Tailors  ( aka: Devil's dream )
M:4/4
L:1/8
C:Scots Reel
S:Arr: Gary Smith
R:Reel
Z:ABC: Gary Smith
K:A
|:e2 | agae agae | agae fedc | dfBf dfBf | dfba gefg |!
 agae agae | agae fedc| defe dcBA | EA GB A2 ||!
|:e2 | agae agae | agae fedc |  b^abf b^abf |b^ab^a b^abc' 
|!
 agae agae | agae fedc| defe dcBA | EA GB A2 ||!
| ed | ceAe ceAe | ceAa fedc | dfBf dfBf | dfBb gfed |!
ceAe ceAe | ceAa fedc | defe dcBA | EA GB A2:||!
